!!!id: EG103
!!!page: 21
!!!COM: Anonymous
!!!LYR: Anonymous
!!!PTL@@FR: Chansons Populaires du Canada
!!!OTL@@FR: V'la l'bon vent
!!!PUB: G. E. Desbarats
!!!YEM:
!!!PDT: 1865
!!!SMA:
!!!OMD:
!!!AGN-Laforte:
!!!AGN-type:
!!!AGN-rime:
**kern
*clefG2
*k[]
*a:
*M2/4
*
*
=1
!LO:TX:a:i:t=Chœur.
8e
8a
4a
=2
8e
16a
16a
4a
=3
8e
8a
8a
(16aL
16bJ)
!!LO:PB:g=original
=4
8cc
8cc
8b
8b
=5
8e
8a
4a
=6
8e
16a
16a
4a
!!LO:PB:g=original
=7
8e
8a
8a
(16aL
!LO:TX:a:t=in original)
!LO:TX:a:t=(no slur here
16bJ)
=8
8cc
8b
8a
=||
!LO:TX:a:t=FIN.
!LO:TX:a:t=(8th R, top)
8e
=9
!LO:TX:a:i:t=Voix seule.
8a
8cc
8b
8a
!!LO:PB:g=original
=10
8g
8b/
8a
8e
=11
8a
8cc
8b
8a
=12
8g
8b/
8a
8e
!!LO:PB:g=original
=13
8a
8cc
8b/
8a
=14
8a
8g
4g
!LO:TX:b:t=D.C.
==||
*
*
==|
